X: 17850
T: Horizonto
R: jig
M: 6/8
K: Gminor
|:"Gm"ded cdB|"Cm"cAB "Dm"GAF|"Gm"D2G GAB|"F"AGA FGA|
"Eb"B3 BcB|"F"A2F FGA|"Eb"BAG "F"AGF|"Dm"D=EF "Gm"G3:|
|:"Cm"E2G GAB|E2G GAB|"Gm"D2G GAB|D2G GAB|"Cm"E2G GAB|
"Cm"E2G GAB|1 "Dm"ded cdB|cAB GAF:|2 "Gm"=E2G GAB|=E2G GAB||
"Cm7"e2 d2 cB|"F7"A3 ABc|"Bb7"d2 c2 BA|"Eb7"G3 GAB|
"Am7b5"c2 B2 AG|"D"^F3 FGA|"Gm"B2 c2_d2|d3 "G7"dcd|
"Cm7"e2 f2 e2|"F7"A3 ABc|"Bb7"d2 e2 d2|"Eb7"G3 GAB|
"Am7b5"c2 B2 AG|"D7"^F3 FGA|"Gm"BAG "F"AGF|"Dm"D=EF "Gm"G3||

